!!!SOCIAL_FUNCTION:	war songs
!!!PDT:	1932
!!!OTL: No_128_Song_of_Protection_During_the_Civil_War_(a).krn
!!!REG: Wisconsin
!!!LANG: Non-Tone
!!!LING_GROUP: Algonquin
**kern
*staff1
=1-
*clefF4
*k[b-]
*M2/4
4r
8r
8c\
=2
4c\
8c\L
8c\J
=3
[2c\
=4
4c\]
4c\
=5
4B-\
8G\L
8F\J
=6
[2F\
=7
8F\]
8r
4G\
=8!|:
4B-\
8A\L
8G\J
=9
[2F\
=10
4F\]
4G\
=11
4F\
8D/L
8C/J
=12
[2C/
=13
4C/]
8r
8D\
=14
4F\
8D/L
8C/J
=15||
*M3/4
2C/
8r
8D\
=16||
*M2/4
4C/
8C/L
8D/J
=17||
*M3/4
2C/
8r
8G\
=18:|!
*M2/4
2C/
==
*-
